img/svg/at24-4.svg

<svg width="24" height="24" viewBox="0 0 24 24" fill="none" xmlns="http://www.w3.org/2000/svg">
<path d="M23.4375 18H3V3.5625C3 3.42188 2.90625 3.28125 2.8125 3.1875C2.71875 3.09375 2.57812 3 2.4375 3H0.5625C0.375 3 0.234375 3.09375 0.140625 3.1875C0.046875 3.28125 0 3.42188 0 3.5625V20.4375C0 20.625 0.046875 20.7656 0.140625 20.8594C0.234375 20.9531 0.375 21 0.5625 21H23.4375C23.5781 21 23.7188 20.9531 23.8125 20.8594C23.9062 20.7656 24 20.625 24 20.4375V18.5625C24 18.4219 23.9062 18.2812 23.8125 18.1875C23.7188 18.0938 23.5781 18 23.4375 18ZM17.4844 7.45312V7.5C17.5781 7.40625 17.7188 7.35938 17.9062 7.40625C18.0938 7.45312 18.1875 7.54688 18.2812 7.6875L22.5 16.5H4.5V11.625L8.57812 4.82812C8.67188 4.6875 8.8125 4.59375 9 4.59375C9.1875 4.59375 9.375 4.64062 9.51562 4.78125L13.5 10.125L17.4844 7.45312Z" fill="#FFD500"/>
</svg>

<svg width="24" height="24" viewBox="0 0 24 24" fill="none" xmlns="http://www.w3.org/2000/svg"><path d="M23.438 18H3V3.562c0-.14-.094-.28-.188-.374C2.72 3.094 2.579 3 2.438 3H.562a.594.594 0 00-.421.188.532.532 0 00-.141.374v16.875c0 .188.047.329.14.422.094.094.235.141.422.141h22.875a.533.533 0 00.375-.14.595.595 0 00.188-.422v-1.875c0-.141-.094-.282-.188-.375-.093-.094-.234-.188-.375-.188zM17.483 7.453V7.5c.094-.094.235-.14.422-.094.188.047.282.14.375.282L22.5 16.5h-18v-4.875l4.078-6.797A.492.492 0 019 4.594c.188 0 .375.047.516.187l3.984 5.344 3.984-2.672z" fill="#FFD500"/></svg>
